X:41
%%score 1 2
%%pagewidth 850pt
T:Row well, ye mariners
M:6/8
L:1/8
K:G
V:1 clef-treble
V:2 clef-bass octave=-1
V:1
!f![B,DG]|[A,DF]2E [DF]2[DG]|[DA]3-[DA]2[DGB]|[EG(c]d)c [DG(B]c)B|
w:All you that news would hear,* Give ear* to me,* poor
V:2
G,|D3 D2E|F3-F2G|C3G,3|
V:1
[DFA]2F A2[B,DG]|[A,DF]2E [DF]2[DG]|[DA]3-[DA]2[DGB]|[EG(c]d)c [DG(B]c)B|[CFA]2[B,G]2[B,G]||:
w:Fa-byn Fly, At Rome I was this year,* And in* the Pope* his nose did lie;
V:2
D3-D2G,|D3 D2E|F3-F2G|C3 G,3|D2G G2||:
V:1
G|(de)d A2B & F3 =F3|(cd)B [CA]3 & E2D x3|"^p"(=GA)G [CF]2[B,G] & E2D x3| (AF)D [B,G]2 & C3 x2 :||:
w:But there* I could not long a-bide, He blew* me out of ev'* ry side.
w:For first* when he had heard the news That re *bels did their prince* mis use,
V:2
G|[DA]3 [DA]3|[E^G]3 [A,A]3|c2B A2G|[DF]3 [G,G]2 :||:
V:1
[DGB]|"^f Row"[DAd]3 "^well,"[^CA]3|"^row"[DAd]3 "^well,"[^CA]3|"^p Row"[DAd]2[FAe]"^well," [Gd]2"^ye"[EAc]|"^ma-"[GB]2"^ri-"[FA] "^ners."G2:||
w:*Then he with joy,~Did sport him-self with many a toy:
w:*He then so-stout,~That from his nose he blew me out.
V:2
G|F2D A2G|F2D A2G|F2=c B2A|d2[Dc] [GB]2 :||

